svgs/sharp-regular/shop.svg

<svg xmlns="http://www.w3.org/2000/svg" viewBox="0 0 640 512"><!--! Font Awesome Pro 6.6.0 by @fontawesome - https://fontawesome.com License - https://fontawesome.com/license (Commercial License) Copyright 2024 Fonticons, Inc. --><path d="M515.5 48l69.8 128L54.7 176 124.5 48l391 0zM96 0L0 176l0 48 48 0 16 0 0 264 0 24 24 0 272 0 24 0 0-24 0-264 144 0 0 264 0 24 48 0 0-24 0-264 16 0 48 0 0-48L544 0 96 0zM336 224l0 96-224 0 0-96 224 0zM112 464l0-96 224 0 0 96-224 0z"/></svg>

<svg xmlns="http://www.w3.org/2000/svg" viewBox="0 0 640 512"><!--! Font Awesome Pro 6.4.2 by @fontawesome - https://fontawesome.com License - https://fontawesome.com/license (Commercial License) Copyright 2023 Fonticons, Inc. --><path d="M515.5 48l69.8 128H54.7L124.5 48h391zM96 0L0 176v48H48 64V488v24H88 360h24V488 224H528V488v24h48V488 224h16 48V176L544 0H96zM336 224v96H112V224H336zM112 464V368H336v96H112z"/></svg>
